templates/main/build/images/logo-new.svg

<svg xmlns="http://www.w3.org/2000/svg" width="91" height="48" viewBox="0 0 91 48">
  <g fill="none">
    <polygon fill="#4F4F4F" points="0 0 6 0 17 18 17 0 23 0 23 27 17 27 6 9 6 27 0 27"/>
    <path fill="#4F4F4F" d="M47,0 L47,5 L34,5 L34,11 L45,11 L45,16 L34,16 L34,22 L47,22 L47,27 L28,27 L28,0 L47,0 Z"/>
    <polygon fill="#4F4F4F" points="69 5 56 5 56 11 67 11 67 16 56 16 56 27 50 27 50 0 69 0"/>
    <polygon fill="#4F4F4F" points="91 5 78 5 78 11 89 11 89 16 78 16 78 27 72 27 72 0 91 0"/>
    <path fill="#394791" d="M2.82452261 34.0438191C4.0160804 34.0438191 4.68663317 34.7119598 4.68663317 35.8673367 4.68663317 37.0227136 4.00643216 37.6739698 2.82452261 37.6739698L0 37.6739698 0 31.5762814 4.15115578 31.5762814 4.15115578 32.278191.80080402 32.278191.80080402 34.0438191 2.82452261 34.0438191zM2.56160804 34.7457286L.80080402 34.7457286.80080402 36.9720603 2.56160804 36.9720603C3.44683417 36.9720603 3.88824121 36.6126633 3.88824121 35.8673367 3.88824121 35.1220101 3.45407035 34.7457286 2.55919598 34.7457286L2.56160804 34.7457286zM9.00663317 37.6763819L6.35336683 37.6763819 6.35336683 31.5762814 7.15175879 31.5762814 7.15175879 34.0510553 9.00663317 34.0510553C10.198191 34.0510553 10.8687437 34.7095477 10.8687437 35.8673367 10.8687437 37.0251256 10.1885427 37.6763819 9.00663317 37.6763819zM8.73407035 34.7457286L7.15175879 34.7457286 7.15175879 36.9720603 8.73407035 36.9720603C9.61929648 36.9720603 10.0607035 36.6126633 10.0607035 35.8673367 10.0607035 35.1220101 9.62894472 34.7457286 8.73407035 34.7457286L8.73407035 34.7457286zM12.4245226 31.5762814L12.4245226 37.6763819 11.6261307 37.6763819 11.6261307 31.5762814 12.4245226 31.5762814z"/>
    <polygon fill="#394791" points="18.488 32.278 16.455 32.278 16.455 37.676 15.657 37.676 15.657 32.278 13.623 32.278 13.623 31.576 18.488 31.576"/>
    <path fill="#394791" d="M25.0034171 34.5744724C25.0034171 36.3642211 24.0241206 37.8211055 22.1089447 37.8211055 20.1937688 37.8211055 19.2144724 36.3304523 19.2144724 34.5575879 19.2144724 32.6568844 20.3457286 31.4219095 22.1089447 31.4219095 23.9758794 31.4315578 25.0034171 32.758191 25.0034171 34.5744724zM20.0032161 34.6178894C20.0032161 36.1423116 20.8281407 37.1288442 22.1113568 37.1288442 23.3945729 37.1288442 24.2050251 36.1350754 24.2050251 34.6178894 24.2050251 33.1007035 23.3801005 32.1334673 22.0944724 32.1334673 20.6665327 32.1334673 20.0032161 33.3153769 20.0032161 34.6178894L20.0032161 34.6178894zM29.118392 31.5762814C30.121809 31.5762814 31.0480402 31.9790955 31.0480402 33.1007035 31.0603597 33.6829519 30.7019715 34.2089108 30.1555779 34.4104523 30.9033166 34.5817085 31.320603 35.1461307 31.320603 35.9517588 31.320603 37.3555779 30.1821106 37.6739698 29.0243216 37.6739698L26.5326633 37.6739698 26.5326633 31.5762814 29.118392 31.5762814zM27.3165829 34.1885427L28.7638191 34.1885427C29.4440201 34.1885427 30.2617085 34.1378894 30.2617085 33.2237186 30.2617085 32.3095477 29.5549749 32.2588945 28.841005 32.2588945L27.3262312 32.2588945 27.3165829 34.1885427zM27.3165829 36.998593L28.9157789 36.998593C29.7238191 36.998593 30.5149749 36.9479397 30.5149749 35.8769849 30.5149749 34.8060302 29.5887437 34.8228988 28.7807035 34.8228988L27.318995 34.8228988 27.3165829 36.998593zM37.7945729 37.6763819L36.9045226 37.6763819 36.2315578 35.8094472 33.6868342 35.8094472 32.9969849 37.6763819 32.1455276 37.6763819 34.5262312 31.5786935 35.4283417 31.5786935 37.7945729 37.6763819zM34.9628141 32.3481407L33.9159799 35.1654271 35.9903518 35.1654271 34.9628141 32.3481407zM39.2056281 37.6763819L38.2190955 37.6763819 40.2428141 35.0472362C39.2996985 34.919397 38.7376884 34.3453266 38.7376884 33.3250251 38.7376884 32.1768844 39.4613065 31.5786935 40.6504523 31.5786935L43.2530653 31.5786935 43.2530653 37.6763819 42.4522613 37.6763819 42.4522613 35.0713568 41.2028141 35.0713568 39.2056281 37.6763819zM42.4522613 32.2613065L40.920603 32.2613065C40.0353769 32.2613065 39.5433166 32.5772864 39.5433166 33.3226131 39.5433166 34.0679397 40.0257286 34.3839196 40.920603 34.3839196L42.4522613 34.3839196 42.4522613 32.2613065z"/>
    <polygon fill="#394791" points="51.792 32.278 49.758 32.278 49.758 37.676 48.965 37.676 48.965 32.278 46.931 32.278 46.931 31.576 51.797 31.576"/>
    <polygon fill="#394791" points="57.19 32.278 53.789 32.278 53.789 34.189 56.963 34.189 56.963 34.866 53.789 34.866 53.789 36.972 57.226 36.972 57.226 37.674 52.998 37.674 52.998 31.576 57.19 31.576"/>
    <polygon fill="#394791" points="61.095 34.531 63.223 37.667 62.258 37.667 60.625 35.156 58.936 37.667 58.017 37.667 60.152 34.531 58.152 31.576 59.117 31.576 60.639 33.923 62.214 31.576 63.124 31.576"/>
    <polygon fill="#394791" points="69.241 37.676 68.442 37.676 68.442 34.823 65.244 34.823 65.244 37.676 64.445 37.676 64.445 31.576 65.244 31.576 65.244 34.121 68.442 34.121 68.442 31.576 69.241 31.576"/>
    <polygon fill="#394791" points="71.11 31.576 71.908 31.576 71.908 36.741 71.925 36.741 74.894 31.576 75.908 31.576 75.908 37.676 75.109 37.676 75.109 32.493 75.092 32.493 72.121 37.676 71.117 37.676"/>
    <polygon fill="#394791" points="80.143 34.027 82.796 37.676 81.769 37.676 79.574 34.577 78.57 35.542 78.57 37.684 77.772 37.684 77.772 31.576 78.57 31.576 78.57 34.599 81.641 31.576 82.688 31.576"/>
    <path fill="#394791" d="M88.8844221,37.6763819 L87.9919598,37.6763819 L87.3165829,35.8070352 L84.7766834,35.8070352 L84.0868342,37.6739698 L83.2377889,37.6739698 L85.6281407,31.5762814 L86.5302513,31.5762814 L88.8844221,37.6763819 Z M86.0526633,32.3481407 L85.0058291,35.1654271 L87.0753769,35.1654271 L86.0526633,32.3481407 Z"/>
    <polygon fill="#4F4F4F" points=".369 41.625 1.17 41.625 1.17 46.794 1.187 46.794 4.156 41.63 5.169 41.63 5.169 47.727 4.368 47.727 4.368 42.544 4.342 42.544 1.372 47.725 .369 47.725"/>
    <path fill="#4F4F4F" d="M11.6044221,47.8625126 C10.1571859,47.8625126 9.0958794,47.1871357 9.0958794,45.7133668 L9.87015075,45.7133668 C9.9039196,46.8180905 10.7047236,47.2040201 11.6743719,47.2040201 C12.5089447,47.2040201 13.1626131,46.7071357 13.1626131,45.9280402 C13.1626131,45.0379899 12.438995,44.8570854 11.6309548,44.8570854 C11.4596985,44.8570854 11.2136683,44.8570854 11.0858291,44.8739698 L11.0858291,44.2058291 C11.2209045,44.2227136 11.4934673,44.2227136 11.6309548,44.2227136 C12.3955779,44.2227136 12.9503518,43.9573869 12.9503518,43.1252261 C12.9503518,42.3702513 12.3304523,42.1483417 11.6502513,42.1483417 C10.7577889,42.1483417 10.239196,42.5077387 10.1451256,43.3905528 L9.36844221,43.3905528 C9.41909548,42.080804 10.3887437,41.480201 11.6743719,41.480201 C12.839397,41.480201 13.7487437,41.9770854 13.7487437,43.1252261 C13.7271852,43.7346796 13.3259003,44.2652245 12.7453266,44.4518593 L12.7453266,44.478392 C13.4557178,44.5982272 13.9697983,45.222321 13.9513568,45.9425126 C13.961005,46.6974874 13.3049246,47.8625126 11.6044221,47.8625126 Z"/>
    <polygon fill="#4F4F4F" points="22.565 47.725 22.565 41.625 26.545 41.625 26.545 42.327 23.363 42.327 23.363 47.723"/>
    <polygon fill="#4F4F4F" points="34.353 42.329 30.959 42.329 30.959 44.24 34.131 44.24 34.131 44.917 30.959 44.917 30.959 47.023 34.396 47.023 34.396 47.725 30.151 47.725 30.151 41.625 34.343 41.625"/>
    <path fill="#4F4F4F" d="M40.8241206,41.6249246 C41.9819095,41.6249246 42.840603,42.1073367 42.840603,43.3809045 C42.840603,44.758191 41.9553769,45.2213065 40.7734673,45.2213065 L39.1308543,45.2213065 L39.1308543,47.7226131 L38.3324623,47.7226131 L38.3324623,41.6249246 L40.8241206,41.6249246 Z M39.1356784,44.5459296 L40.6745729,44.5459296 C41.4488442,44.5459296 42.0446231,44.3312563 42.0446231,43.4315578 C42.0446231,42.4667337 41.3547739,42.319598 40.5636181,42.319598 L39.1356784,42.319598 L39.1356784,44.5459296 Z"/>
    <polygon fill="#4F4F4F" points="47.865 41.625 49.811 46.794 51.69 41.63 52.805 41.63 52.805 47.727 52.047 47.727 52.047 42.636 50.152 47.723 49.447 47.723 47.518 42.636 47.518 47.723 46.753 47.723 46.753 41.625"/>
    <path fill="#4F4F4F" d="M62.0092462,47.7250251 L61.1167839,47.7250251 L60.4438191,45.8580905 L57.8894472,45.8580905 L57.199598,47.7250251 L56.3505528,47.7250251 L58.7312563,41.6273367 L59.6333668,41.6273367 L62.0092462,47.7250251 Z M59.1774874,42.3967839 L58.1306533,45.2140704 L60.2050251,45.2140704 L59.1774874,42.3967839 Z"/>
    <polygon fill="#4F4F4F" points="70.35 47.725 69.552 47.725 69.552 44.864 66.353 44.864 66.353 47.715 65.555 47.715 65.555 41.625 66.353 41.625 66.353 44.17 69.552 44.17 69.552 41.625 70.35 41.625"/>
    <polygon fill="#4F4F4F" points="74.636 41.625 75.435 41.625 75.435 46.794 75.452 46.794 78.421 41.63 79.434 41.63 79.434 47.727 78.633 47.727 78.633 42.544 78.616 42.544 75.64 47.725 74.636 47.725"/>
    <polygon fill="#4F4F4F" points="83.718 41.625 84.516 41.625 84.516 46.794 84.533 46.794 87.502 41.63 88.523 41.63 88.523 47.727 87.724 47.727 87.724 42.544 87.707 42.544 84.731 47.725 83.727 47.725"/>
  </g>
</svg>

<svg xmlns="http://www.w3.org/2000/svg" width="123" height="48"><g fill="none" fill-rule="evenodd"><path fill="#4F4F4F" fill-rule="nonzero" d="M0 0h6l11 18V0h6v27h-6L6 9v18H0zm47 0v5H34v6h11v5H34v6h13v5H28V0zm22 5H56v6h11v5H56v11h-6V0h19zm22 0H78v6h11v5H78v11h-6V0h19z"/><path fill="#394791" d="M107 0l16 48H91l16-48zm-.61 35.19l-11.916 6.244-1.782 5.347h.167l13.531-7.094V35.19zm1.218 5.874v5.716h10.904l-10.904-5.716zm0-5.875v4.498l13.532 7.093h.169l-1.783-5.345-11.918-6.246zm-1.218 5.875L95.487 46.78h10.903v-5.716zm1.218-11.752v4.498l11.362 5.956-1.817-5.45-9.545-5.004zm-1.218.001l-9.543 5.001-1.817 5.451 11.36-5.955v-4.497zm0-5.876l-7.17 3.757-1.817 5.451 8.987-4.71v-4.498zm1.218 0v4.497l8.989 4.711-1.817-5.45-7.172-3.759zm0-5.877v4.497l6.616 3.47-1.818-5.454-4.798-2.513zm-1.218 0l-4.797 2.513-1.817 5.452 6.614-3.467V17.56zm1.218-5.877v4.498l4.242 2.225-1.818-5.453-2.424-1.27zm-1.218 0l-2.424 1.27-1.817 5.452 4.241-2.223v-4.499zm0-6.004l-1.868 5.604 1.868-.979V5.68zm1.218 0v4.625l1.868.98-1.868-5.605zM121.171 27v1.586l1.122-1.121.242.242-1.122 1.121h1.588v.343h-1.588l1.122 1.122-.241.242-1.123-1.122V31h-.342v-1.588l-1.122 1.123-.242-.242 1.122-1.122H119v-.342l1.587-.001-1.122-1.121.242-.242 1.122 1.121V27h.342zM93 23a2 2 0 110 4.001A2 2 0 0193 23zm27-4a1 1 0 110 2 1 1 0 010-2zM97.172 9v1.586l1.122-1.121.242.242-1.122 1.121h1.588v.343h-1.588l1.122 1.122-.241.242-1.123-1.122V13h-.342v-1.588l-1.122 1.123-.242-.242 1.122-1.122H95v-.342l1.587-.001-1.122-1.121.242-.242 1.122 1.121V9h.342zM114.5 8a1.5 1.5 0 110 3 1.5 1.5 0 010-3zm5.757-8l-.001 2.381L121.94.697l.363.363-1.685 1.683h2.383v.513h-2.382l1.684 1.684-.363.362-1.684-1.684.001 2.382h-.513V3.618l-1.684 1.684-.362-.362 1.682-1.684H117v-.513h2.381l-1.683-1.683.363-.363 1.683 1.684V0h.513zM96 1a1 1 0 110 2 1 1 0 010-2z"/><path fill="#394791" fill-rule="nonzero" d="M2.825 34.044c1.191 0 1.862.668 1.862 1.823 0 1.156-.68 1.807-1.862 1.807H0v-6.098h4.151v.702H.801v1.766h2.024zm-.263.702H.8v2.226h1.76c.886 0 1.327-.36 1.327-1.105s-.434-1.121-1.329-1.121h.003zm6.445 2.93H6.353v-6.1h.799v2.475h1.855c1.191 0 1.862.659 1.862 1.816 0 1.158-.68 1.81-1.862 1.81zm-.273-2.93H7.152v2.226h1.582c.885 0 1.327-.36 1.327-1.105s-.432-1.121-1.327-1.121zm3.69-3.17v6.1h-.798v-6.1h.799zm6.064.702h-2.033v5.398h-.798v-5.398h-2.034v-.702h4.865zm6.515 2.296c0 1.79-.979 3.247-2.894 3.247s-2.895-1.49-2.895-3.263c0-1.901 1.132-3.136 2.895-3.136 1.867.01 2.894 1.336 2.894 3.152zm-5 .044c0 1.524.825 2.51 2.108 2.51 1.284 0 2.094-.993 2.094-2.51s-.825-2.485-2.11-2.485c-1.428 0-2.092 1.182-2.092 2.485zm9.115-3.042c1.004 0 1.93.403 1.93 1.525a1.365 1.365 0 01-.892 1.31c.747.17 1.165.735 1.165 1.54 0 1.405-1.139 1.723-2.297 1.723h-2.491v-6.098h2.585zm-1.801 2.613h1.447c.68 0 1.498-.051 1.498-.965 0-.914-.707-.965-1.421-.965h-1.515l-.01 1.93zm0 2.81h1.599c.808 0 1.599-.051 1.599-1.122 0-1.071-.926-1.054-1.734-1.054h-1.462l-.002 2.176zm10.478.677h-.89l-.673-1.867h-2.545l-.69 1.867h-.851l2.38-6.097h.902l2.367 6.097zm-2.832-5.328l-1.047 2.817h2.074l-1.027-2.817zm4.243 5.328h-.987l2.024-2.629c-.943-.128-1.505-.702-1.505-1.722 0-1.148.723-1.746 1.912-1.746h2.603v6.097h-.8v-2.605h-1.25l-1.997 2.605zm3.246-5.415h-1.531c-.886 0-1.378.316-1.378 1.062 0 .745.483 1.06 1.378 1.06h1.531v-2.122zm9.34.017h-2.034v5.398h-.793v-5.398h-2.034v-.702h4.866zm5.398 0h-3.401v1.911h3.174v.677h-3.174v2.106h3.437v.702h-4.228v-6.098h4.192zm3.905 2.253l2.128 3.136h-.965l-1.633-2.511-1.689 2.511h-.919l2.135-3.136-2-2.955h.965l1.522 2.347 1.575-2.347h.91zm8.146 3.145h-.799v-2.853h-3.198v2.853h-.799v-6.1h.799v2.545h3.198v-2.545h.799zm1.869-6.1h.798v5.165h.017l2.969-5.165h1.014v6.1h-.799v-5.183h-.017l-2.971 5.183h-1.004zm9.033 2.451l2.653 3.649h-1.027l-2.195-3.099-1.004.965v2.142h-.798v-6.108h.798v3.023l3.071-3.023h1.047zm8.741 3.649h-.892l-.675-1.869h-2.54l-.69 1.867h-.85l2.391-6.098h.902l2.354 6.1zm-2.831-5.328l-1.047 2.817h2.07l-1.023-2.817z"/><path fill="#4F4F4F" fill-rule="nonzero" d="M.369 41.625h.801v5.169h.017l2.969-5.164h1.013v6.097h-.801v-5.183h-.026l-2.97 5.181H.369zm11.235 6.238c-1.447 0-2.508-.676-2.508-2.15h.774c.034 1.105.835 1.491 1.804 1.491.835 0 1.489-.497 1.489-1.276 0-.89-.724-1.07-1.532-1.07-.171 0-.417 0-.545.016v-.668c.135.017.407.017.545.017.765 0 1.32-.266 1.32-1.098 0-.755-.62-.977-1.3-.977-.893 0-1.412.36-1.506 1.243h-.777c.051-1.31 1.02-1.91 2.306-1.91 1.165 0 2.075.496 2.075 1.644a1.447 1.447 0 01-1.004 1.327v.026c.71.12 1.225.744 1.206 1.465.01.754-.646 1.92-2.347 1.92zm10.961-.138v-6.1h3.98v.702h-3.182v5.396zm11.788-5.396h-3.394v1.911h3.172v.677h-3.172v2.106h3.437v.702h-4.245v-6.1h4.192zm6.471-.704c1.158 0 2.017.482 2.017 1.756 0 1.377-.886 1.84-2.068 1.84h-1.642v2.502h-.799v-6.098h2.492zm-1.688 2.92h1.539c.774 0 1.37-.214 1.37-1.113 0-.965-.69-1.112-1.481-1.112h-1.428v2.226zm8.729-2.92l1.946 5.169 1.879-5.164h1.115v6.097h-.758v-5.091l-1.895 5.087h-.705l-1.929-5.087v5.087h-.765v-6.098zm14.145 6.1h-.893l-.673-1.867h-2.555l-.69 1.867h-.848l2.38-6.098h.902l2.376 6.098zm-2.833-5.328l-1.046 2.817h2.074l-1.028-2.817zm11.173 5.328h-.798v-2.861h-3.199v2.851h-.798v-6.09h.798v2.545h3.199v-2.545h.798zm4.286-6.1h.799v5.169h.017l2.969-5.164h1.013v6.097h-.801v-5.183h-.017l-2.976 5.181h-1.004zm9.082 0h.798v5.169h.017l2.969-5.164h1.021v6.097h-.799v-5.183h-.017l-2.976 5.181h-1.004z"/></g></svg>
